X:18
T:Craven's Stomp
T:Bobby Shaftoe
M:4/4
L:1/8
Q:220
Z:Brian Martin
K:G
"(Bobby Shaftoe)"
D2|G2GGG2c2|B2d2B2G2|D2DDD2G2|F2A2F2D2|
G2GGG2c2|B2d2B2G2|A2c2A2F2|1G4G2:|2G4G4|]!
B2d2B2G2|B2d2B4|A2c2A2F2|A2c2A4|
B2d2B2G2|B2d2B4|A2c2A2F2|1G4G4:|2G4G2|]
